lib/brands/logos/cyber-ark.svg

<svg xmlns="http://www.w3.org/2000/svg" fill="none" aria-hidden="true" viewBox="0 0 225 53"><g id="CyberArk"><g id="Group"><g id="Group_2"><path id="Vector" fill="#4E8DCB" d="M23.1694 4.93094L4.39899 15.7753L14.0544 21.3235L23.1694 16.0635V4.93094Z"/><path id="Vector_2" fill="#1F6DAE" d="M32.2843 31.8076L23.1693 37.0676L23.2053 48.2002L41.9397 37.3919V26.2593L32.2843 31.8076Z"/><path id="Vector_3" fill="#1F6DAE" d="M23.1693 4.93094V16.0635L32.2842 21.3235L41.9036 15.7392L23.1693 4.93094Z"/><path id="Vector_4" fill="#4E8DCB" d="M4.43488 37.3919L23.2053 48.2002L23.1693 37.0676L14.0543 31.8436L4.43488 37.3919Z"/><path id="Vector_5" fill="#1F6DAE" d="M4.43501 37.3919L14.0544 31.8436V21.3236L4.39899 15.7753L4.43501 37.3919Z"/><path id="Vector_6" fill="#888888" d="M23.1693 16.0635L32.2842 21.3236V31.8437L23.1693 26.5836V16.0635Z"/><path id="Vector_7" fill="#595757" d="M23.1693 16.0635L14.0543 21.3236V31.8437L23.1693 26.5836V16.0635Z"/></g><g id="Union"><path fill="#231815" d="M68.0238 33.2126C66.0783 35.1221 63.5564 36.0228 60.8903 36.0228C54.009 36.0228 50.9107 31.2671 50.8746 26.2953C50.8386 21.3235 54.1171 16.3517 60.8903 16.3517C63.4483 16.3517 65.8982 17.2884 67.8437 19.2339L65.8261 21.1794C64.4571 19.8464 62.6917 19.2339 60.9263 19.2339C56.0986 19.2339 53.9009 22.8006 53.937 26.2953C53.973 29.754 56.0266 33.2126 60.9263 33.2126C62.6917 33.2126 64.6372 32.4921 65.9702 31.1591L68.0238 33.2126Z"/><path fill="#231815" d="M79.1564 25.0704L84.5606 16.676H88.2354V16.8201L80.6696 27.8806V35.6626H77.6432V27.8806L70.3296 16.8201V16.676H73.9324L79.1564 25.0704Z"/><path fill="#231815" fill-rule="evenodd" d="M107.366 22.0801C107.366 18.3333 104.52 16.676 100.917 16.676H92.1985V35.6626H100.917C104.664 35.6626 107.979 34.3656 107.979 30.2224C107.979 28.7813 107.006 26.5476 104.736 25.863C106.538 25.1065 107.366 23.6654 107.366 22.0801ZM100.953 24.53H95.2248V19.4141H100.917C103.223 19.4141 104.376 20.8192 104.376 22.1522C104.376 23.6293 103.223 24.53 100.953 24.53ZM100.917 32.8164H95.1888V27.2321H100.917C102.683 27.2321 104.916 28.1688 104.916 30.1864C104.916 32.276 102.61 32.8164 100.917 32.8164Z" clip-rule="evenodd"/><path fill="#231815" d="M127.001 35.6626H112.987V16.676H126.929V19.6303H116.049V24.7462H126.497V27.5924H116.049V32.6723H127.001V35.6626Z"/><path fill="#231815" fill-rule="evenodd" d="M145.087 35.6626H148.654L148.33 35.1222L142.673 28.8173C146.42 28.2769 147.825 25.6109 147.825 22.9088C147.825 19.7023 145.519 16.712 141.124 16.712C139.647 16.712 138.179 16.703 136.711 16.694C135.242 16.685 133.774 16.676 132.297 16.676V35.6626H135.324V29.1055H139.323L145.087 35.6626ZM135.324 26.3314V19.4501H141.124C143.61 19.4501 144.727 21.2515 144.727 22.9448C144.727 24.7462 143.61 26.3314 141.088 26.3314H135.324Z" clip-rule="evenodd"/></g><g id="Union_2"><path fill="#1F6DAE" fill-rule="evenodd" d="M218.944 16.4958H219.16C219.268 16.4958 219.304 16.4238 219.232 16.3878C218.944 15.8473 218.656 15.4871 218.548 15.415C219.016 15.379 219.196 15.0908 219.196 14.7305C219.196 14.3702 218.908 14.046 218.367 14.046H217.755C217.719 14.046 217.647 14.082 217.647 14.154V16.3878C217.647 16.4238 217.683 16.4958 217.755 16.4958H217.899C217.971 16.4958 218.007 16.4598 218.007 16.3878V15.451H218.079C218.151 15.451 218.187 15.4871 218.223 15.5231C218.357 15.6566 218.459 15.8211 218.617 16.0738L218.656 16.1356C218.728 16.2795 218.764 16.3518 218.836 16.4598C218.872 16.4958 218.908 16.4958 218.944 16.4958ZM218.007 14.3342H218.259C218.62 14.3342 218.8 14.4423 218.8 14.7305C218.8 15.0187 218.692 15.1268 218.259 15.1268H218.007V14.3342Z" clip-rule="evenodd"/><path fill="#1F6DAE" fill-rule="evenodd" d="M216.134 15.2709C216.134 16.5679 217.142 17.5046 218.367 17.5046C219.556 17.5046 220.565 16.5319 220.601 15.2709C220.601 13.9739 219.556 13.0372 218.367 13.0372C217.142 13.0372 216.134 14.0099 216.134 15.2709ZM216.53 15.3069C216.53 14.2261 217.359 13.3974 218.367 13.3974C219.376 13.3974 220.205 14.1901 220.205 15.3069C220.205 16.3878 219.376 17.2164 218.367 17.2164C217.323 17.2164 216.53 16.3878 216.53 15.3069Z" clip-rule="evenodd"/><path fill="#1F6DAE" fill-rule="evenodd" d="M157.337 32.5282H165.803L167.028 35.6626H172.792L164.29 16.676H158.886L150.383 35.6626H156.076L157.337 32.5282ZM159.138 28.0607L161.588 22.0081L164.002 28.0607H159.138Z" clip-rule="evenodd"/><path fill="#1F6DAE" fill-rule="evenodd" d="M187.312 35.6626H193.256V35.3383L188.32 28.9254C191.491 27.5203 192.319 25.5388 192.319 23.197C192.319 19.8104 189.798 16.676 184.934 16.676H175.675V35.6626H181.043V29.5019H182.916L187.312 35.6626ZM181.043 25.5028V20.9633H184.934C186.339 20.9633 187.023 22.1162 187.023 23.3051C187.023 24.458 186.411 25.5028 185.006 25.5028H181.043Z" clip-rule="evenodd"/><path fill="#1F6DAE" d="M213.792 17.0002L206.082 25.9711C208.748 28.8894 211.81 32.312 214.44 35.3383V35.6626H207.811L202.371 29.3577V35.6626H197.003V16.676H202.371V22.9088C203.992 20.8912 205.758 18.6935 207.343 16.676H213.756V17.0002H213.792Z"/></g></g></g></svg>

<svg xmlns="http://www.w3.org/2000/svg" fill="none" aria-hidden="true" viewBox="0 0 225 53"><path fill="#4E8DCB" d="M23.17 4.93 4.398 15.776l9.655 5.548 9.115-5.26V4.932Z"/><path fill="#1F6DAE" d="m32.284 31.808-9.115 5.26.036 11.132L41.94 37.392V26.259l-9.656 5.549ZM23.17 4.93v11.134l9.114 5.26 9.62-5.585L23.169 4.931Z"/><path fill="#4E8DCB" d="M4.435 37.392 23.205 48.2l-.036-11.132-9.115-5.224-9.62 5.548Z"/><path fill="#1F6DAE" d="m4.435 37.392 9.62-5.548v-10.52l-9.656-5.549.036 21.617Z"/><path fill="#888" d="m23.17 16.064 9.114 5.26v10.52l-9.115-5.26v-10.52Z"/><path fill="#595757" d="m23.17 16.064-9.116 5.26v10.52l9.115-5.26v-10.52Z"/><path fill="#231815" d="M68.024 33.213c-1.946 1.91-4.468 2.81-7.134 2.81-6.881 0-9.98-4.756-10.015-9.728-.036-4.972 3.242-9.943 10.015-9.943 2.558 0 5.008.936 6.954 2.882l-2.018 1.945c-1.369-1.333-3.134-1.945-4.9-1.945-4.827 0-7.025 3.567-6.989 7.061.036 3.459 2.09 6.918 6.99 6.918 1.765 0 3.71-.72 5.043-2.054l2.054 2.054Zm11.132-8.143 5.405-8.394h3.674v.144L80.67 27.88v7.783h-3.027V27.88L70.33 16.82v-.145h3.602l5.224 8.394Z"/><path fill="#231815" fill-rule="evenodd" d="M107.366 22.08c0-3.747-2.846-5.404-6.449-5.404h-8.719v18.987h8.719c3.747 0 7.062-1.297 7.062-5.44 0-1.442-.973-3.675-3.243-4.36 1.802-.757 2.63-2.198 2.63-3.783Zm-6.413 2.45h-5.728v-5.116h5.692c2.306 0 3.459 1.405 3.459 2.738 0 1.477-1.153 2.378-3.423 2.378Zm-.036 8.286h-5.728v-5.584h5.728c1.766 0 3.999.937 3.999 2.954 0 2.09-2.306 2.63-3.999 2.63Z" clip-rule="evenodd"/><path fill="#231815" d="M127.001 35.663h-14.014V16.676h13.942v2.954h-10.88v5.116h10.448v2.846h-10.448v5.08h10.952v2.99Z"/><path fill="#231815" fill-rule="evenodd" d="M145.087 35.663h3.567l-.324-.54-5.657-6.306c3.747-.54 5.152-3.206 5.152-5.908 0-3.207-2.306-6.197-6.701-6.197-1.477 0-2.945-.009-4.413-.018-1.469-.009-2.937-.018-4.414-.018v18.987h3.027v-6.557h3.999l5.764 6.557Zm-9.763-9.332v-6.88h5.8c2.486 0 3.603 1.8 3.603 3.494 0 1.801-1.117 3.386-3.639 3.386h-5.764Z" clip-rule="evenodd"/><path fill="#1F6DAE" fill-rule="evenodd" d="M218.944 16.496h.216c.108 0 .144-.072.072-.108-.288-.54-.576-.901-.684-.973.468-.036.648-.324.648-.685 0-.36-.288-.684-.829-.684h-.612c-.036 0-.108.036-.108.108v2.234c0 .036.036.108.108.108h.144c.072 0 .108-.036.108-.108v-.937h.072c.072 0 .108.036.144.072.134.134.236.298.394.55l.039.063c.072.143.108.216.18.324.036.036.072.036.108.036Zm-.937-2.162h.252c.361 0 .541.108.541.396 0 .289-.108.397-.541.397h-.252v-.793Z" clip-rule="evenodd"/><path fill="#1F6DAE" fill-rule="evenodd" d="M216.134 15.27c0 1.298 1.008 2.235 2.233 2.235 1.189 0 2.198-.973 2.234-2.234a2.222 2.222 0 0 0-2.234-2.234 2.221 2.221 0 0 0-2.233 2.234Zm.396.037c0-1.08.829-1.91 1.837-1.91 1.009 0 1.838.793 1.838 1.91 0 1.08-.829 1.91-1.838 1.91-1.044 0-1.837-.83-1.837-1.91Zm-59.193 17.221h8.466l1.225 3.135h5.764l-8.502-18.987h-5.404l-8.503 18.987h5.693l1.261-3.135Zm1.801-4.467 2.45-6.053 2.414 6.053h-4.864Zm28.174 7.602h5.944v-.325l-4.936-6.413c3.171-1.405 3.999-3.386 3.999-5.728 0-3.387-2.521-6.521-7.385-6.521h-9.259v18.987h5.368v-6.161h1.873l4.396 6.16Zm-6.269-10.16v-4.54h3.891c1.405 0 2.089 1.153 2.089 2.342 0 1.153-.612 2.198-2.017 2.198h-3.963Z" clip-rule="evenodd"/><path fill="#1F6DAE" d="m213.792 17-7.71 8.971a531.918 531.918 0 0 1 8.358 9.367v.325h-6.629l-5.44-6.305v6.305h-5.368V16.676h5.368v6.233c1.621-2.018 3.387-4.215 4.972-6.233h6.413V17h.036Z"/></svg>
